wp-content/themes/xevos-cyber-theme/assets/img/prehled-skoleni/uroven-skoleni.svg

<svg fill="none" height="24" viewBox="0 0 24 24" width="24" xmlns="http://www.w3.org/2000/svg" xmlns:xlink="http://www.w3.org/1999/xlink"><mask id="a" height="24" maskUnits="userSpaceOnUse" width="24" x="0" y="0"><path d="m0 0h24v24h-24z" fill="#d9d9d9"/></mask><g mask="url(#a)"><path d="m5 20v-6h3v6zm6 0v-11h3v11zm6 0v-16h3v16z" fill="#0bf"/></g></svg>

<svg width="24" height="24" viewBox="0 0 24 24" fill="none" xmlns="http://www.w3.org/2000/svg">
<mask id="mask0_594_12364" style="mask-type:alpha" maskUnits="userSpaceOnUse" x="0" y="0" width="24" height="24">
<rect width="24" height="24" fill="#D9D9D9"/>
</mask>
<g mask="url(#mask0_594_12364)">
<path d="M5 20V14H8V20H5ZM11 20V9H14V20H11ZM17 20V4H20V20H17Z" fill="#00BBFF"/>
</g>
</svg>
